assets/img/achieves/video/aviutl.svg

<?xml version="1.0" standalone="no"?>
<!-- Generator: Adobe Fireworks 10, Export SVG Extension by Aaron Beall (http://fireworks.abeall.com) . Version: 0.6.1  -->
<!DOCTYPE svg PUBLIC "-//W3C//DTD SVG 1.1//EN" "http://www.w3.org/Graphics/SVG/1.1/DTD/svg11.dtd">
<svg id="aviutl.fw-%u30DA%u30FC%u30B8%201" viewBox="0 0 1021 1021" style="background-color:#666666" version="1.1"
	xmlns="http://www.w3.org/2000/svg" xmlns:xlink="http://www.w3.org/1999/xlink" xml:space="preserve"
	x="0px" y="0px" width="1021px" height="1021px"
>
	<g>
		<path d="M 0 0 L 1021 0 L 1021 1021 L 0 1021 L 0 0 Z" fill="#333333"/>
		<path d="M 41.5 22.5 L 41.5 1000.5 L 25.5 1000.5 L 25.5 22.5 L 41.5 22.5 ZM 145.5 22.5 L 145.5 38.5 L 87.5 38.5 L 87.5 22.5 L 145.5 22.5 ZM 206.5 22.5 L 206.5 207.5 L 820.5 207.5 L 820.5 22.5 L 858.5 22.5 L 858.5 1000.5 L 820.5 1000.5 L 820.5 795.5 L 206.5 795.5 L 206.5 1000.5 L 168.5 1000.5 L 168.5 22.5 L 206.5 22.5 ZM 940.5 22.5 L 940.5 38.5 L 882.5 38.5 L 882.5 22.5 L 940.5 22.5 ZM 1001.5 22.5 L 1001.5 1000.5 L 985.5 1000.5 L 985.5 22.5 L 1001.5 22.5 ZM 145.5 83.5 L 145.5 161.5 L 87.5 161.5 L 87.5 83.5 L 145.5 83.5 ZM 940.5 83.5 L 940.5 161.5 L 882.5 161.5 L 882.5 83.5 L 940.5 83.5 ZM 145.5 206.5 L 145.5 284.5 L 87.5 284.5 L 87.5 206.5 L 145.5 206.5 ZM 940.5 206.5 L 940.5 284.5 L 882.5 284.5 L 882.5 206.5 L 940.5 206.5 ZM 816.5 246.5 L 816.5 753.5 L 210.5 753.5 L 210.5 246.5 L 816.5 246.5 ZM 145.5 328.5 L 145.5 408.5 L 87.5 408.5 L 87.5 328.5 L 145.5 328.5 ZM 940.5 328.5 L 940.5 408.5 L 882.5 408.5 L 882.5 328.5 L 940.5 328.5 ZM 145.5 452.5 L 145.5 529.5 L 87.5 529.5 L 87.5 452.5 L 145.5 452.5 ZM 940.5 452.5 L 940.5 529.5 L 882.5 529.5 L 882.5 452.5 L 940.5 452.5 ZM 145.5 576.5 L 145.5 653.5 L 87.5 653.5 L 87.5 576.5 L 145.5 576.5 ZM 940.5 576.5 L 940.5 653.5 L 882.5 653.5 L 882.5 576.5 L 940.5 576.5 ZM 145.5 699.5 L 145.5 776.5 L 87.5 776.5 L 87.5 699.5 L 145.5 699.5 ZM 940.5 699.5 L 940.5 776.5 L 882.5 776.5 L 882.5 699.5 L 940.5 699.5 ZM 145.5 819.5 L 145.5 899.5 L 87.5 899.5 L 87.5 819.5 L 145.5 819.5 ZM 940.5 819.5 L 940.5 899.5 L 882.5 899.5 L 882.5 819.5 L 940.5 819.5 ZM 145.5 942.5 L 145.5 1000.5 L 87.5 1000.5 L 87.5 942.5 L 145.5 942.5 ZM 940.5 942.5 L 940.5 1000.5 L 882.5 1000.5 L 882.5 942.5 L 940.5 942.5 Z" fill="#ffffff"/>
		<path d="M 206 246 L 820 246 L 820 755 L 206 755 L 206 246 Z" fill="#333333"/>
	</g>
</svg>

<svg xmlns="http://www.w3.org/2000/svg" viewBox="0 0 1021 1021" style="background-color:#666666">
  <path fill="#333" d="M0 0h1021v1021H0V0z"/>
  <path fill="#fff" d="M41.5 22.5v978h-16v-978h16zm104 0v16h-58v-16h58zm61 0v185h614v-185h38v978h-38v-205h-614v205h-38v-978h38zm734 0v16h-58v-16h58zm61 0v978h-16v-978h16zm-856 61v78h-58v-78h58zm795 0v78h-58v-78h58zm-795 123v78h-58v-78h58zm795 0v78h-58v-78h58zm-124 40v507h-606v-507h606zm-671 82v80h-58v-80h58zm795 0v80h-58v-80h58zm-795 124v77h-58v-77h58zm795 0v77h-58v-77h58zm-795 124v77h-58v-77h58zm795 0v77h-58v-77h58zm-795 123v77h-58v-77h58zm795 0v77h-58v-77h58zm-795 120v80h-58v-80h58zm795 0v80h-58v-80h58zm-795 123v58h-58v-58h58zm795 0v58h-58v-58h58z"/>
  <path fill="#333" d="M206 246h614v509H206V246z"/>
</svg>
